public/images/flags/NL.svg

<svg width="21" height="15" viewBox="0 0 21 15" fill="none" xmlns="http://www.w3.org/2000/svg">
<path d="M0 4H21V11H0V4Z" fill="#F6F9FC"/>
<path opacity="0.1" d="M20 11V4H21V11H20ZM0 4H1V11H0V4Z" fill="#8898AA"/>
<path d="M21 2V5H0V2C0 1.46957 0.210712 0.960858 0.585785 0.585785C0.960858 0.210712 1.46957 0 2 0H19C19.5304 0 20.0391 0.210712 20.4142 0.585785C20.7893 0.960858 21 1.46957 21 2Z" fill="#E25950"/>
<path d="M0 13V10H21V13C21 13.5304 20.7893 14.0391 20.4142 14.4142C20.0391 14.7893 19.5304 15 19 15H2C1.46957 15 0.960858 14.7893 0.585785 14.4142C0.210712 14.0391 0 13.5304 0 13Z" fill="#6772E5"/>
</svg>

<svg width="21" height="15" fill="none" xmlns="http://www.w3.org/2000/svg"><path d="M0 4h21v7H0V4z" fill="#F6F9FC"/><path opacity=".1" d="M20 11V4h1v7h-1zM0 4h1v7H0V4z" fill="#8898AA"/><path d="M21 2v3H0V2a2 2 0 0 1 2-2h17a2 2 0 0 1 2 2z" fill="#E25950"/><path d="M0 13v-3h21v3a2 2 0 0 1-2 2H2a2 2 0 0 1-2-2z" fill="#6772E5"/></svg>
